X: 24915
T: Maid At The Well, The
R: jig
M: 6/8
K: Gmajor
|:G2 D EGD|GAB c3|ded ABG|AGE EDE|
G2 D EDE|GAB c3|ded ABG|1 AGF GFG:|2 AGF GBd||
gdd edd|gdB ~c3|ded ABG|AGE E2 f|
gdd edd|gdB ~c3|ded ABG|AGF GBd|
gdd edd|gdB ~c3|ded ABG|AGE EDE|
G2 D EGD|GAB c3|ded ABG|AGF G3||

